!!!OTL: Well der wesse wie mer sein, S. 13
!!!id: L0010
**kern
*clefG2
*k[b-]
*F:
{16f
=1
16f
8f
8f
8cc
8cc
=2
8a
8g
4f}
=3
{8g
8g
8cc
8cc
=4
8b-
8a
8g
8a
=5
8f
8a
16a
16g
16a
16g
=6
4f}
4r
=7
{4f
4c
=8
8f
8g
8a
8b-
=9
4cc}
4r
=10
{8b-
8a
8g
8a
=11
8g
8g
4f
=12
4g
4f}
==
*-
!!!minrhy: 16
!!!meters: 2/4 ]  ZZ[4
!!!cut: Well der wesse wie mer sein, S. 13
!!!reg: Luxemburg
!!!trd: Die Luxemburger Volkslieder &auml;lterer Zeit, Luxemburg 1904 posth.
!!!rhy1:   X_X_X_X_  X_X_X__
!!!rhy2: X_X_X_X_  X_X_X_X_  X_X_XXXX  X__0__
!!!key: L0010  16  F 2/4 ]  ZZ[4
!!!mod: PENTATONIK DUR ?]  AMBITUS[8
!!!kad: 1151
!!!akz: 13_2411_115_422_
!!!fot: 'a__b__c__d__
!!!for: 'a__aw_b__aw_
!!!fok: '^__Md_Va_\__
!! PHRAS[VOLLTAKTIG]
!!!fkt: Kinderlied
!!!bem: 16tel in Takt f&uuml;nf original als Vorhalte notiert
!! FONTAINE, Ed.:
!! PR[49] 2K[3] 2G[7] 3K[8] 3G[0] 4A[3] 4Ü[0] 5A[1] 6K[0] 6G[0]
!! 7K[0] 7G[0] 8A[0] MEHR[0] SI[22] ABS[74] SR[9] SP[12]
!! ST[20] 2k[8] 2g[15] 3k[5] 3g[0] 4d[0] 4ü[0] 5d[1] 6k[0] 6g[0]
!! 7k[0] 7g[0] 8d[0] mehr[0] si[30] dm[-8] sr[23] sp[7]
!! 1F[12] 2F[57] 3F[7] 4F[0] LF[0] 2P[0] 3P[0] 4P[0] TRI[0] DF[4] AB[86]
!! TF[0] U3K[0] U3[0] U4[0] U4Ü[0] U5[0] U6K[1] U6[0] U7K[0] U7[0]
!! N1[12] N2K[5] N2[0] N3K[63] N3[3] N4[16] N4Ü[0] N5[0] N6K[0] N6[0]
!!!n7k: 0] N7[0] O1[0] O2K[0] O2[0] O3K[0] O3[0] HÖ[0
!!!RNB: symbol: &auml;      = a umlaut  (UTF-8: Å„)
!!!RNB: symbol: &uuml;  = u umlaut (UTF-8: Ã¼)
